packages/icons/src/exit-full-screen.svg

<svg width="15" height="15" viewBox="0 0 15 15" fill="none" xmlns="http://www.w3.org/2000/svg">
  <path
    fill-rule="evenodd"
    clip-rule="evenodd"
    d="M5.5 2C5.77614 2 6 2.22386 6 2.5V5.5C6 5.77614 5.77614 6 5.5 6H2.5C2.22386 6 2 5.77614 2 5.5C2 5.22386 2.22386 5 2.5 5H5V2.5C5 2.22386 5.22386 2 5.5 2ZM9.5 2C9.77614 2 10 2.22386 10 2.5V5H12.5C12.7761 5 13 5.22386 13 5.5C13 5.77614 12.7761 6 12.5 6H9.5C9.22386 6 9 5.77614 9 5.5V2.5C9 2.22386 9.22386 2 9.5 2ZM2 9.5C2 9.22386 2.22386 9 2.5 9H5.5C5.77614 9 6 9.22386 6 9.5V12.5C6 12.7761 5.77614 13 5.5 13C5.22386 13 5 12.7761 5 12.5V10H2.5C2.22386 10 2 9.77614 2 9.5ZM9 9.5C9 9.22386 9.22386 9 9.5 9H12.5C12.7761 9 13 9.22386 13 9.5C13 9.77614 12.7761 10 12.5 10H10V12.5C10 12.7761 9.77614 13 9.5 13C9.22386 13 9 12.7761 9 12.5V9.5Z"
    fill="currentColor"
  />
</svg>

<svg xmlns="http://www.w3.org/2000/svg" width="15" height="15" fill="none"><path fill="currentColor" fill-rule="evenodd" d="M5.5 2a.5.5 0 0 1 .5.5v3a.5.5 0 0 1-.5.5h-3a.5.5 0 0 1 0-1H5V2.5a.5.5 0 0 1 .5-.5m4 0a.5.5 0 0 1 .5.5V5h2.5a.5.5 0 0 1 0 1h-3a.5.5 0 0 1-.5-.5v-3a.5.5 0 0 1 .5-.5M2 9.5a.5.5 0 0 1 .5-.5h3a.5.5 0 0 1 .5.5v3a.5.5 0 0 1-1 0V10H2.5a.5.5 0 0 1-.5-.5m7 0a.5.5 0 0 1 .5-.5h3a.5.5 0 0 1 0 1H10v2.5a.5.5 0 0 1-1 0z" clip-rule="evenodd"/></svg>
